packages/core/src/svg/ui/money-bag-fill.svg

<svg width="24" height="24" viewBox="0 0 24 24" fill="none" xmlns="http://www.w3.org/2000/svg">
<path fill-rule="evenodd" clip-rule="evenodd" d="M17.9772 3.90476C17.9772 2.95238 17.9772 2 11.9995 2C6.02259 2 6.02259 2.95251 6.02259 3.90476C6.02259 4.34797 7.21975 5.75613 8.85629 6.73027C5.23966 8.81779 2.37855 13.9814 2.03782 17.2381C1.5396 22 6.0227 22 11.9993 22C17.976 22 22.4603 22 21.9622 17.2381C21.6233 13.9983 18.7893 8.87132 15.199 6.76301C16.807 5.84216 17.9772 4.50064 17.9772 3.90476ZM12.464 14.716L12.116 15.856H10.712C10.916 16.66 11.336 17.2 12.212 17.2C13.184 17.2 13.52 16.336 13.532 15.352L15.116 16.348C14.744 17.56 13.784 18.592 12.212 18.592C10.64 18.592 9.452 17.68 9.032 15.856H8V14.716H8.888C8.876 14.584 8.876 14.44 8.876 14.284V14.02H8V12.88H9.02C9.44 10.984 10.712 10 12.212 10C13.724 10 14.744 10.96 15.116 12.184L13.532 13.168C13.532 12.184 13.16 11.392 12.212 11.392C11.384 11.392 10.928 12.016 10.712 12.88H12.98L12.644 14.02H10.568V14.716H12.464Z" fill="currentColor"/>
</svg>

<svg xmlns="http://www.w3.org/2000/svg" viewBox="0 0 24 24"><g fill="none" fill-rule="evenodd"><path d="M0 0h24v24H0z"/><path clip-rule="evenodd" d="M17.977 3.905c0-.953 0-1.905-5.978-1.905-5.976 0-5.976.953-5.976 1.905 0 .443 1.197 1.851 2.833 2.825C5.24 8.818 2.38 13.981 2.038 17.238 1.54 22 6.023 22 11.999 22c5.977 0 10.461 0 9.963-4.762-.339-3.24-3.173-8.367-6.763-10.475 1.608-.92 2.778-2.262 2.778-2.858zm-5.513 10.811l-.348 1.14h-1.404c.204.804.624 1.344 1.5 1.344.972 0 1.308-.864 1.32-1.848l1.584.996c-.372 1.212-1.332 2.244-2.904 2.244-1.572 0-2.76-.912-3.18-2.736H8v-1.14h.888c-.012-.132-.012-.276-.012-.432v-.264H8v-1.14h1.02c.42-1.896 1.692-2.88 3.192-2.88 1.512 0 2.532.96 2.904 2.184l-1.584.984c0-.984-.372-1.776-1.32-1.776-.828 0-1.284.624-1.5 1.488h2.268l-.336 1.14h-2.076v.696h1.896z" fill="currentColor"/></g></svg>
